icons/contraceptive_voucher_fill.svg

<svg width="48" height="48" viewBox="0 0 48 48" fill="none" xmlns="http://www.w3.org/2000/svg">
<path d="M19.2728 25.5855C19.115 24.9013 19.1901 24.2666 19.4253 23.7235L21.3366 25.6348L21.9038 28.0949C22.5317 30.8188 19.4213 32.8455 17.1832 31.1709L16.6942 30.805C15.9663 30.2604 14.9481 30.891 15.1114 31.7854L15.3709 33.2065L13.4034 33.5658L13.1439 32.1447C12.6539 29.4616 15.7086 27.5697 17.8924 29.2037L18.3814 29.5695C19.1274 30.1278 20.1642 29.4522 19.9549 28.5442L19.2728 25.5855Z" fill="black"/>
<path d="M34.106 14.1504C32.6985 12.743 30.1313 13.0282 28.372 14.7875C26.6152 16.5444 26.3283 19.1069 27.7292 20.5156L28.1374 23.9369L28.1391 23.952L29.7505 25.5634C30.0564 25.0403 30.2075 24.4055 30.1233 23.6999L29.8503 21.4117C31.0636 21.4661 32.412 20.9412 33.4689 19.8843C35.2282 18.125 35.5134 15.5579 34.106 14.1504Z" fill="black"/>
<path fill-rule="evenodd" clip-rule="evenodd" d="M24 43C34.4934 43 43 34.4934 43 24C43 13.5066 34.4934 5 24 5C13.5066 5 5 13.5066 5 24C5 34.4934 13.5066 43 24 43ZM24 41C28.3346 41 32.2903 39.3777 35.293 36.7072L11.2928 12.707C8.62226 15.7097 7 19.6654 7 24C7 33.3888 14.6112 41 24 41ZM12.707 11.2928L36.7072 35.293C39.3777 32.2903 41 28.3346 41 24C41 14.6112 33.3888 7 24 7C19.6654 7 15.7097 8.62226 12.707 11.2928Z" fill="black"/>
</svg>

<svg
  xmlns="http://www.w3.org/2000/svg"
  width="24"
  height="24"
  viewBox="0 0 24 24"
  fill="none"
  stroke="currentColor"
  stroke-width="2"
  stroke-linecap="round"
  stroke-linejoin="round"
>
  <path d="M19.273 25.586a2.96 2.96 0 0 1 .152-1.862l1.912 1.91.567 2.46c.628 2.725-2.483 4.752-4.72 3.077l-.49-.366c-.728-.545-1.746.086-1.583.98l.26 1.421-1.968.36-.26-1.421c-.49-2.683 2.566-4.575 4.75-2.941l.488.366c.746.558 1.783-.118 1.574-1.026z" />
  <path d="M34.106 14.15c-1.407-1.407-3.975-1.122-5.734.637-1.757 1.757-2.044 4.32-.643 5.729l.408 3.42.002.016 1.611 1.611a2.95 2.95 0 0 0 .373-1.863l-.273-2.288c1.214.054 2.562-.47 3.619-1.528 1.76-1.759 2.044-4.326.637-5.734" />
  <path
    fill-rule="evenodd"
    d="M24 43c10.493 0 19-8.507 19-19S34.493 5 24 5 5 13.507 5 24s8.507 19 19 19m0-2c4.335 0 8.29-1.622 11.293-4.293l-24-24A16.94 16.94 0 0 0 7 24c0 9.389 7.611 17 17 17M12.707 11.293l24 24A16.94 16.94 0 0 0 41 24c0-9.389-7.611-17-17-17-4.335 0-8.29 1.622-11.293 4.293"
    clip-rule="evenodd"
  />
</svg>
